X: 2
T: Waltz No.2
T: from Suite No.2 for Jazz Orchestra
N: Transposed with chords
C: Dmitri Shostakovich
R: waltz
Z: 2020 John Chambers <jc:trillian.mit.edu>
M: 3/4
L: 1/4
K: Gm
"^A"|:\
"Gm"d3 | B2A | G3- | GGA | BGB | d2e | d3 | "D7"c3 ||
c3 | A2G | ^F3 | zC^F | A^FA | cde | "Gm"^c3 | d3 ||
"Gm"b3 | a2g | "Cm"f2e | c3 | "F7"a3 | g2f | "Bb"f3 | "Eb"z.B.[Ac] ||
"Bb/D".[Bd] d/c/ d/e/ | "Cm/Eb".[Ac] c/B/ c/d/ | "Gm/D".[GB]z.[GBd] | "Eb"z.[GB].[Ac] |
"Bb/D".[Bd] d/c/ d/e/ | "Cm/Eb".[Ac] c/B/ c/d/ | "Gm".[GB]z.[GBd] | "Eb"z.[Bg][.[ca] ||
"Gm/D".[gb] b/a/ b/c'/ | "D7".[^fa] a/g/ "To Coda"a/b/ ||
[1 "Gm"g3- | g3- | g3- | g3 :|[2 "Gm"[B3-d3-g3-] | [Bdg] z "Gb7"f "^B"||
"Bb"b3 | b3 | bag | fdf | "F7"a3 | a3 | "Bb"gfd | Bcd ||
"G7"g3 | f3 | "Cm"fed | c_Bc | "Bb"d2f | "F7"c2f | "Bb"d2f | b2c' ||
"Bb"d'3 | d'3 | d'c'b | afa | "F7"c'3 | c'3 | "Bb"c'ba | gdf ||
"Bb"b3 | "Bb7/Ab"b3 | "Eb/G"b3 | "/Cb"c'bc' | "Bb/F"d'2b | "F7"fga | "Bb"bc'b | _ag^f||
"^C"|:\
"Eb"g'2b- | bab | g'2b- | b_a'g' | "Bb7"g'2f' | =e'2f' | c''2b' | _a'g'f' ||
"Eb"g'2b- | bab | g'2b- | bc'd' | "Ab"e'2f' | "/C"g'2g' | "F7"=a'g'a' |
[1 "Bb"b'2_a' :|[2 "Bb"b'/c''/ b'/a'/ b'/c''/ | "Daug7"[^f'2^a'2d''2]"A.C. al Coda"^a' !coda!|]
"Gm"g3 | "D7"zd'2 ||
"Gm"d'3 | b2a | g3- | gab | bgb | d'2e' | "D7/A"d'3 | c'3 ||
"Cm/A"c'3 | "Gm/D"a2g | "D7/A"^f3- | fd^f | a^fa | c'd'e' | "Gm"^c'3 | d'3 ||
b3 | a2g | "Cm/A"f2e | c3 | "F/A"a3 | g2f | "Bb"f3 | "Eb"z.B.[Ac] ||
"Bb/D".[Bd] d/c/ d/e/ | "Cm/Eb".[Ac] c/B/ c/d/ | "Gm/D".[GB]z.[GBd] | "Eb"z.[GB].[Ac] |
"Bb/D".[Bd] d/c/ d/e/ | "Eb".[Ac] c/B/ c/d/ | "Gm/D".[GB]z.[GBd] | "Eb".[Bg].[ca] ||
"Gm/D".[gb] b/a/ b/c'/ | "D7".[^fa] a/g/ a/b/ | "Gm"gz "D7".[^fc'd'] | "Gm".[gbg'] z2 |]

